X: 20823
M: 6/8
L: 1/8
K: F
V: 1 name="3"
c>dc A>BA | c>dc A2B | cde fga | gGG G2A |\
c>dc A>BA | c2b a2g | fed cAf | cAF "^D.C."F2 :|


